X: 318
T:Molly Bn
T:Molly Bawn
T:"Young" John Naughton's (this setting)
R:reel
C:Traditional
S:Davy Muir, Glasgow
D:The Lonely Stranded Band (this setting)
D:The Bothy Band, 'Old Hag You Have Killed Me' (Em)
D:Paddy Carty &amp; Conor Tully (Gm)
Z:Gordon Turnbull
M:C
L:1/8
K:AMix
A2 EA cded | BG G2 eGdG | EAce a2 ed  | cedB BAGB |
A2 EA cded | BG G2 eGdG | EAce a2 ed  | cedB BA A2 |]
a2 ea a2 ba | geef g2 gb | a2 ea a2 ba | gedB BA A2 |
a2 ea a2 ba | geef g2 gb | b2 ba gbaf | gedB eBdB |]"End" A2 ||
<end>
<start>
